X:1
T: Hough's Favourite Reel
C:
R:Reel
Q: 232
K:D
M:4/4
L:1/8
|:FG|AG AB AF ED|GF GA Bc de|ff fd gg ge|fd ce dF GB|
AG AB AF ED|GF GA Bc de|ff fd gg ge|fd ce d2:|
|:d2|a4 d3f|ed ef ed B2|a4 d3f|ed ef ef g2|
a4 d3f|ed ef ed B2|ff fd gg ge|fd ce d2:|
